X:1
T:Fado d'Anadia
T:Fado d'Anadia
T:in "Cantos Populares - 12 Fados para Piano"
T:Editor: Eduardo da Fonseca - Porto [ca. 1900]
%%score { 1 | 2 }
L:1/8
Q:1/4=90
M:4/4
K:F
V:1 treble nm="Piano" snm="Pno."
V:2 bass 
V:1
 (efg) | (a3 f d)fba | age^c A(ef^f) | (g3 e ^c)ba^g | (a3 f d)efg | (a3 f d)aaa | age^c A(ef^f) | %7
 (g3 e ^c)ba^g | (a3 f d)(dfa | d'2) .d'.d' .d'.d'.d'.d' | .^c'.c'.d'.d' (e'3 d') | ^c'b a3 (efg) | %12
 (fe d3) a{/c'}ba | gfed ^cBA^G | (AA^ce) [Aa]3 e | .d.d.f.a .A.A.^c.e | d4- da{/c'}ba | %17
 gfed ^cBA^G | (AA^ce) [Aa]3 e | .d.d.f.a .A.A.^c.e | d2 z z2!D.C.! |] %21
V:2
 z2 z | D,2 [F,A,D]2 [F,A,D]2 [F,A,D]2 | A,,2 [G,A,^C]2 [G,A,C]2 [G,A,C]2 | %3
 A,,2 [G,A,^C]2 [G,A,C]2 [G,A,C]2 | D,2 [F,A,D]2 [F,A,D]2 [F,A,D]2 | %5
 D,2 [F,A,D]2 [F,A,D]2 [F,A,D]2 | A,,2 [G,A,^C]2 [G,A,C]2 [G,A,C]2 | %7
 A,,2 [G,A,^C]2 [G,A,C]2 [G,A,C]2 | D,2 [F,A,D]2 [F,A,D]2 [F,A,D]2 | %9
 D,2 [F,A,D]2 [F,A,D]2 [F,A,D]2 | A,,2 [G,A,^C]2 [G,A,C]2 [G,A,C]2 | %11
 A,,2 [G,A,^C]2 [G,A,C]2 [G,A,C]2 | D,2 [F,A,D]2 [F,A,D]2 [F,A,D]2 | %13
 D,2 [F,A,D]2 [F,A,D]2 [F,A,D]2 | A,,2 [G,A,^C]2 [G,A,C]2 [G,A,C]2 | D,2 [F,A,D]2 A,,2 [G,A,^C]2 | %16
 D,2 [F,A,D]2 [F,A,D]2 z2 | D,2 [F,A,D]2 D,2 [F,A,D]2 | A,,2 [G,A,^C]2 [G,A,C]4 | %19
 D,2 [F,A,D]2 A,,2 [G,A,^C]2 | D,2 [F,A,D]2 D, |] %21

